!!!!SEGMENT: pl-wtm--r-2037_smietanski-emil-wladyslaw--graziella.krn
!!!cenid: 18xx:2019
!!!COM: Śmietański, Emil Władysław
!!!COM-rismid: pe50041781
!!!CDT: 1845-1886
!!!CNT: Polish
!!!OTL: Graziella
!!!PDT: 1872
!!!AGN: Secular
!!!SMS-siglum: PL-Wtm
!!!SMS-shelfmark: R 2037
!!!SMS-shelfwork: W
!!!SMS-variant:
!!!SMS-altvar:
!!!NIFC-rismid: 1001112683
!!!URL-scan: http://repozytorium.nifc.pl/skany/pl-wtm-nut--r2037
!!!ONB-nifc:
!!!OMD: Andantino quazi Alegretto
**kern	**fing	**kern	**fing	**dynam
*part1	*	*part1	*	*part1
*staff2	*	*staff1	*	*
*Ipiano	*	*Ipiano	*	*
*I"Piano	*	*I"Piano	*	*
*I'pf	*	*I'pf	*	*
*clefF4	*	*clefG2	*	*
*k[f#c#g#]	*	*k[f#c#g#]	*	*
*A:	*	*A:	*	*
*M3/4	*	*M3/4	*	*
*>[A,B,C,B,D]	*>[A,B,C,B,D]	*>[A,B,C,B,D]	*>[A,B,C,B,D]	*>[A,B,C,B,D]
=1	=1	=1	=1	=1
*>A	*>A	*>A	*>A	*>A
*	*^	*	*	*
!	!	!	!	!	!LO:DY:t=p.
4AA\	.	.	16cc#\LL	2	p
*ped	*	*	*	*	*
.	.	.	16aa\	3	.
.	.	.	16ee\	.	.
.	.	.	16eee\JJ	.	.
4a 4c#\	1	2	16ccc#\LL	3	.
!	!	!	!LO:TX:b:i:t=con grazia	!	!
.	.	.	16aa\	1	.
.	.	.	16ff#\	3	.
.	.	.	16ee\JJ	1	.
4c# 4E\	.	.	16ff#M\LL	3	.
.	.	.	16ee\	.	.
*Xped	*	*	*	*	*
.	.	.	16cc#\	.	.
.	.	.	16a\JJ	.	.
*	*v	*v	*	*	*
=2	=2	=2	=2	=2
4EE/	.	16dd\LL	.	.
*ped	*	*	*	*
.	.	16gg#\	.	.
.	.	16ee\	.	.
.	.	16eee\JJ	.	.
4g# 4d/	.	16ddd\LL	4	.
.	.	16gg#\	1	.
.	.	16ff#\	3	.
.	.	16ee\JJ	1	.
4d 4E/	.	16ff#M\LL	3	.
.	.	16ee\	1	.
*Xped	*	*	*	*
.	.	16dd\	2	.
.	.	16g#\JJ	1	.
=3	=3	=3	=3	=3
*	*^	*	*	*
4FF#/	.	.	16dd\LL	2	.
.	.	.	16gg#\	4	.
.	.	.	16ee\	1	.
.	.	.	16eee\JJ	3	.
*clefG2	*	*	*	*	*
4b 4d/	1	2	16aaa\LL	.	.
.	.	.	16ddd\	.	.
.	.	.	16ggg#\	.	.
.	.	.	16gg#\JJ	.	.
*clefF4	*	*	*	*	*
4g# 4d 4E\	.	.	16ggg#\LL	.	.
.	.	.	16ddd\	.	.
.	.	.	16gggn\	.	.
.	.	.	16ggny\JJ	.	.
*	*v	*v	*	*	*
=4	=4	=4	=4	=4
4AA\	.	16gggn\LL	.	.
.	.	16ccc#\	.	.
.	.	16fff#\	.	.
.	.	16aa\JJ	.	.
4a 4c#\	.	16fff#\LL	.	.
.	.	16ccc#\	.	.
.	.	16fffn\	.	.
.	.	16aa\JJ	.	.
4c# 4E\	.	16fff\LL	.	.
.	.	16ccc#\	.	.
.	.	16eee\	.	.
.	.	16ee\JJ	.	.
!!LO:LB:g=original
=5	=5	=5	=5	=5
4CC#/	.	16ee\LL	2	.
.	.	16aa\	.	.
.	.	16ee\	.	.
.	.	16eee\JJ	.	.
4a 4c#\	.	16ccc#\LL	.	.
.	.	16aa\	.	.
.	.	16ff#\	.	.
.	.	16ee\JJ	.	.
4c# 4E\	.	16ff#M\LL	.	.
.	.	16ee\	.	.
.	.	16cc#\	.	.
.	.	16a\JJ	.	.
=6	=6	=6	=6	=6
4CCn/	.	16a#X\LL	.	.
.	.	16ggn\	.	.
.	.	16ee\	.	.
.	.	16eee\JJ	.	.
*clefG2	*	*	*	*
4a#X 4e/	.	16eeen\LL	.	.
.	.	16gg\	1	.
.	.	16ff#\	3	.
.	.	16ee\JJ	1	.
4e 4Gn/	.	16ff#m\LL	.	.
.	.	16ee\	1	.
.	.	16ccn\	3	.
.	.	16a#\JJ	2	.
*clefF4	*	*	*	*
=7	=7	=7	=7	=7
4BB\	.	16b\LL	.	.
.	.	16gg#\	.	.
.	.	16ee\	2	.
.	.	16bb\JJ	5	.
*clefG2	*	*	*	*
4b: 4e: 4G#:/	.	16gg#\LL	4	.
.	.	16bb\	1	.
.	.	16bbb\	.	.
.	.	16bb\JJ	.	.
4dd#X: 4a: 4B:/	.	16aaa#XLL 16ccc#\	.	.
.	.	16bb\	.	.
.	.	16aaan 16ddd#X\	.	.
.	.	16bb\JJ	.	.
*clefF4	*	*	*	*
=8	=8	=8	=8	=8
*	*	*	*^	*
*	*	*8va	*	*	*
4E\	.	16gggnLL 16eee#X\	4	2	.
.	.	16fff##X 16ddd#X\	.	.	.
.	.	16ggg 16eee#\	.	.	.
.	.	16eeee#y\JJ	5	.	.
*clefG2	*	*	*	*	*
4ff#: 4dd: [4e:/	.	16fff#XLL 16dddn\	4	1	.
.	.	16eee#X 16ccc#\	.	.	.
.	.	16fff# 16ddd\	.	.	.
.	.	16eeee#\JJ	.	.	.
4ffn 4dd 4e/]	.	16fffnLL 16ddd\	4	1	.
.	.	16eeen 16ccc#\	.	.	.
.	.	16fff 16ddd\	.	.	.
.	.	16eeeeny\JJ	.	.	.
*clefF4	*	*X8va	*	*	*
!!LO:LB:g=original
=9	=9	=9	=9	=9	=9
*	*^	*	*	*	*
4EE/	.	.	16eeeLL 16gg#\	3	1	.
.	.	.	16fffn 16ddd\	.	.	.
.	.	.	16eee 16gg#\	.	.	.
.	.	.	16ggg#JJ 16ddd\	.	.	.
*clefG2	*	*	*	*	*	*
4b 4d/	1	3	16eeeLL 16gg#\	.	.	.
.	.	.	16fff 16ddd\	.	.	.
.	.	.	16eee 16gg#\	.	.	.
.	.	.	16dddJJ 16ffn\	2 5	.	.
*clefF4	*	*	*	*	*	*
4g# 4d 4E\	.	.	16gg#LL 16ee\	.	.	.
.	.	.	16ddd 16ff\	.	.	.
.	.	.	16gg# 16ee\	.	.	.
.	.	.	16eee\JJ	.	.	.
*	*v	*v	*	*	*	*
=10	=10	=10	=10	=10	=10
4AA\	.	16eeeLL 16aa\	3	1	.
.	.	16fff#X 16ccc#\	.	.	.
.	.	16eee 16aa\	.	.	.
.	.	16aaaJJ 16ccc#\	.	.	.
4a 4c#\	.	16eeeLL 16aa\	.	.	.
.	.	16fff# 16ccc#\	.	.	.
.	.	16eee 16aa\	.	.	.
.	.	16ccc#JJ 16ff#\	2 4	.	.
4c# 4E\	.	16aaLL 16ee\	.	.	.
.	.	16ccc# 16ff#\	.	.	.
.	.	16aa 16ee\	.	.	.
.	.	16eee\JJ	.	.	.
*	*	*	*v	*v	*
=11	=11	=11	=11	=11
*	*^	*	*	*
4DD/	.	.	16fff#LL 16ddd 16aa\	2 4 5	.
.	.	.	16dd\	.	.
.	.	.	16fffn 16ddd 16gg#\	.	.
.	.	.	16dd\JJ	.	.
*clefG2	*	*	*	*	*
4a 4d/	1	3	16fff#XLL 16ddd 16aa\	.	.
.	.	.	16dd\	.	.
.	.	.	16aaa 16fff# 16ddd\	.	.
.	.	.	16ff#\JJ	.	.
*clefF4	*	*	*	*	*
4d 4A 4D\	.	.	16aaaLL 16fff# 16ddd\	.	.
.	.	.	16ff#\	.	.
.	.	.	16fffn 16ddd 16aa\	.	.
!LO:TX:b:t=[segno]	!	!	!LO:TX:a:t=[segno]	!	!
.	.	.	16dd\JJ	.	.
*	*v	*v	*	*	*
=12	=12	=12	=12	=12
*>B	*>B	*>B	*>B	*>B
4AAA/	.	16eeeLL 16ccc# 16aa\	.	.
.	.	16cc#\	.	.
.	.	16ddd#X 16cccn 16aa\	.	.
.	.	16ccn\JJ	.	.
4a 4c#\	.	16eeeLL 16ccc#X 16aa\	.	.
.	.	16cc#X\	.	.
.	.	16fffn 16ddd# 16aa\	.	.
.	.	16dd#y\JJ	.	.
4c# 4E\	.	16fffLL 16ddd# 16aa\	.	.
.	.	16dd#\	.	.
.	.	16eee 16ccc# 16aa\	.	.
.	.	16cc#\JJ	.	.
!!LO:LB:g=original
=13	=13	=13	=13	=13
*	*	*	*^	*
4EE/	.	16eeeLL 16gg#\	3	1	.
.	.	16fffn 16ddd\	.	.	.
.	.	16eee 16gg#\	.	.	.
.	.	16bbbJJ 16ddd\	.	.	.
*clefG2	*	*	*	*	*
4b 4d/	.	16eeeLL 16gg#\	.	.	.
.	.	16fffn 16ddd\	.	.	.
.	.	16eee 16gg#\	.	.	.
.	.	16dddJJ 16ffn\	.	.	.
*clefF4	*	*	*	*	*
4g# 4d 4E\	.	16gg#LL 16ee\	.	.	.
.	.	16ddd 16ff\	.	.	.
.	.	16gg# 16ee\	.	.	.
.	.	16eee\JJ	.	.	.
*	*	*	*v	*v	*
=14	=14	=14	=14	=14
4AA\	.	16eeeLL 16aa\	.	.
.	.	16fff# 16ccc#\	.	.
.	.	16eee 16aa\	.	.
.	.	16aaaJJ 16ccc#\	.	.
4a 4c#\	.	16eeeLL 16aa\	.	.
.	.	16fff# 16ccc#\	.	.
.	.	16eee 16aa\	.	.
.	.	16ccc#JJ 16ee\	.	.
4a 4d#X 4cn 4Fn\	.	16aaLL 16dd#X\	1 3	.
.	.	16cccn 16ffn\	1 4	.
.	.	16aa 16dd#\	.	.
.	.	16ddd#XJJ 16ff\	.	.
=15	=15	=15	=15	=15
4EE\	.	16ee\LL	.	.
.	.	16ccc# 16aa\	.	.
.	.	16ddd#X\	.	.
.	.	16eee\JJ	.	.
*	*	*8va	*	*
4a 4c#\	.	16fff#M\LL	.	.
.	.	16eee 16ccc#\	.	.
.	.	16aaa\	.	.
.	.	16eeee\JJ	.	.
!	!	!LO:TX:a:t=P:problem:mordent bez kasownika	!	!
4g# 4d 4E\	.	16fffnM\LL	.	.
.	.	16eee 16ddd\	.	.
.	.	16ggg#\	.	.
!LO:TX:b:t=[segno]	!	!LO:TX:a:t=[segno]	!	!
.	.	16eeee\JJ	.	.
=16	=16	=16	=16	=16
*>C	*>C	*>C	*>C	*>C
4AA\	.	16aaa\LL	.	.
.	.	16ccc# 16aa\	.	.
.	.	16eee\	3	.
.	.	16aaa\JJ	1	.
*clefG2	*	*	*	*
4ee 4a 4c#\	.	8aaaa 8eeee\	.	.
*	*	*X8va	*	*
.	.	8r	.	.
4r	.	8.aaL 8.cc#\	.	.
.	.	16gg#Jk 16b\	.	.
*clefF4	*	*	*	*
!!LO:LB:g=original
=17||	=17||	=17||	=17||	=17||
16BB\LL	.	4.gg# 4.b\	.	.
!	!	!	!	!LO:DY:t=mzf
16B\	.	.	.	mf
16cn\	.	.	.	.
16c#X\JJ	.	.	.	.
*clefG2	*	*	*	*
16d/LL	.	.	.	.
16d#X/	.	.	.	.
!	!	!LO:TX:t=P:problem:skreślone 4ff# 4a\	!	!
16B/	.	8ff#L 8a\	.	.
16b/JJ	.	.	.	.
16d#/LL	.	8cc# 8a#X\	.	.
16b/	.	.	.	.
16B/	.	8dd#XJ 8an\	.	.
16b/JJ	.	.	.	.
=18	=18	=18	=18	=18
16E/LL	.	4.ff# 4.a\	.	.
16B/	.	.	.	.
16cn/	.	.	.	.
16c#X/JJ	.	.	.	.
16d/LL	.	.	.	.
*	*below	*	*	*
16d#X/	2	.	.	.
16e/	1	8eeL 8g#\	.	.
16cn/JJ	.	.	.	.
16B/LL	.	8a#X 8f##X\	.	.
16e/	.	.	.	.
16G#/	.	8bJ 8g#\	.	.
16B/JJ	.	.	.	.
*clefF4	*	*	*	*
=19	=19	=19	=19	=19
16AA\LL	.	8ccnL 8a\	.	.
*	*above	*	*	*
16E\	3	.	.	.
16A\	2	8eeJ 8cc\	.	.
16cn\JJ	1	.	.	.
*clefG2	*	*	*	*
16e/LL	.	8aaL 8ee\	.	.
16a/	.	.	.	.
16ccn/	.	8cccnJ 8aa\	.	.
16a/JJ	.	.	.	.
16f#/LL	.	8.eeeL 8.ccc\	.	.
16e/	.	.	.	.
16c/	.	.	.	.
16A/JJ	.	16cccJk 16aa\	.	.
*clefF4	*	*	*	*
=20	=20	=20	=20	=20
16EE\LL	.	[2bb [>2gg#\	.	.
16BB\	.	.	.	.
16E\	.	.	.	.
16G#\JJ	.	.	.	.
16c#X\LL	4	.	.	.
16B\	.	.	.	.
16b\	.	.	.	.
16B\JJ	.	.	.	.
16A\LL	3	8.bb]L 8.gg#\]	.	.
16G#\	.	.	.	.
16e\	.	.	.	.
16G#\JJ	.	16gg#Jk 16b\	.	.
!!LO:LB:g=original
=21	=21	=21	=21	=21
16BB\LL	.	4.gg# 4.b\	.	.
16B\	.	.	.	.
16cn\	.	.	.	.
16c#X\JJ	.	.	.	.
*clefG2	*	*	*	*
16d/LL	.	.	.	.
16d#X/	.	.	.	.
16B/	.	8ff#L 8a\	.	.
16b/JJ	.	.	.	.
16d#/LL	.	8cc# 8a#X\	.	.
16b/	.	.	.	.
16B/	.	8dd#XJ 8an\	.	.
16b/JJ	.	.	.	.
*LO:CL:ed	*	*	*	*
*clefF4	*	*	*	*
=22	=22	=22	=22	=22
16C#\LL	.	4.ff# 4.a\	.	.
16G#\	.	.	.	.
16c#\	.	.	.	.
16d\JJ	.	.	.	.
16d#X\LL	.	.	.	.
16e\JJ	.	.	.	.
*clefG2	*	*	*	*
16c#/LL	.	8eeL 8g#\	.	.
16cc#/JJ	.	.	.	.
16e/LL	.	8b#X 8gn\	.	.
16a#X/	.	.	.	.
16A#X/	.	8cc#J 8g\	.	.
16a#/JJ	.	.	.	.
*clefF4	*	*	*	*
=23	=23	=23	=23	=23
16BB\LL	.	8bL 8g#X\	.	.
16B\	.	.	.	.
16G#\	.	8eeJ 8g#\	.	.
16e\JJ	.	.	.	.
*clefG2	*	*	*	*
16B/LL	.	8gg#L 8ee\	.	.
16g#/	.	.	.	.
16e/	.	8bbJ 8gg#\	.	.
16b/JJ	.	.	.	.
16B/LL	.	8ccc#L 8aa#X\	.	.
*	*below	*	*	*
16cc#/	1	.	.	.
16ccn/	1	8ddd#XJ 8aan\	.	.
16B/JJ	.	.	.	.
=24	=24	=24	=24	=24
!	!	!LO:TX:b:i:t=poco rit	!	!
16bLL 16e/	.	4eee 4gg#\	.	.
16e/	.	.	.	.
16d#X/	.	.	.	.
16e/JJ	.	.	.	.
!LO:TX:b:t=P:problem:mordent bez kasownika	!	!	!	!
16fnM</LL	.	4r	.	.
16e/	.	.	.	.
16.b/	.	.	.	.
32a#X/JJk	.	.	.	.
16an/LL	.	4r	.	.
16g#y/	.	.	.	.
16f#X/	.	.	.	.
16fn/JJ	.	.	.	.
!!LO:PB:g=original
=25	=25	=25	=25	=25
*clefF4	*	*	*	*
!	!	!LO:TX:b:i:t=a tempo	!	!
4AA\	.	16cc#\LL	.	.
.	.	16aa\	.	.
.	.	16ee\	.	.
.	.	16eee\JJ	.	.
4f# 4c#\	.	16ccc#\LL	3	.
.	.	16aa\	.	.
.	.	16ff#\	.	.
!	!	!	!	!LO:DY:t=p.
.	.	16ee\JJ	.	p
4c# 4E\	.	16ff#M\LL	.	.
.	.	16ee\	.	.
.	.	16cc#\	.	.
.	.	16a\JJ	.	.
=26	=26	=26	=26	=26
4EE/	.	16dd\LL	.	.
.	.	16gg#\	.	.
.	.	16ee\	.	.
.	.	16eee\JJ	.	.
4g# 4d\	.	16ddd\LL	.	.
.	.	16gg#\	.	.
.	.	16ff#\	.	.
.	.	16ee\JJ	.	.
4d 4E\	.	16ff#M\LL	.	.
.	.	16ee\	.	.
.	.	16dd\	.	.
.	.	16g#\JJ	.	.
=27	=27	=27	=27	=27
4EE/	.	16dd\LL	.	.
.	.	16gg#\	.	.
.	.	16ee\	.	.
.	.	16eee\JJ	.	.
*clefG2	*	*	*	*
4b 4d/	.	16aaa\LL	.	.
.	.	16ddd\	.	.
.	.	16ggg#\	.	.
.	.	16gg#\JJ	.	.
4g# 4d 4E/	.	16ggg#\LL	.	.
.	.	16ddd\	.	.
.	.	16gggn\	.	.
.	.	16ggny\JJ	.	.
*clefF4	*	*	*	*
=28	=28	=28	=28	=28
4AA\	.	16gggn\LL	.	.
.	.	16ccc#\	.	.
.	.	16fff#\	.	.
.	.	16aa\JJ	.	.
4a 4c#\	.	16fff#\LL	.	.
.	.	16ccc#\	.	.
.	.	16fffn\	.	.
.	.	16aa\JJ	.	.
4c# 4E\	.	16fff\LL	.	.
.	.	16ccc#\	.	.
.	.	16eee\	.	.
.	.	16ee\JJ	.	.
!!LO:LB:g=original
=29	=29	=29	=29	=29
4AAA/	.	16cc#\LL	.	.
.	.	16aa\	.	.
.	.	16ee\	.	.
.	.	16eee\JJ	.	.
4a 4c#\	.	16ccc#\LL	.	.
.	.	16aa\	.	.
.	.	16ff#\	.	.
.	.	16ee\JJ	.	.
4c# 4E\	.	16ff#M\LL	.	.
.	.	16ee\	.	.
.	.	16cc#\	.	.
.	.	16a\JJ	.	.
=30	=30	=30	=30	=30
4CCn/	.	16a#X\LL	.	.
.	.	16ggn\	.	.
.	.	16ee\	.	.
.	.	16eee\JJ	.	.
*clefG2	*	*	*	*
4a#X 4e/	.	16cccn\LL	.	.
.	.	16gg\	.	.
.	.	16ff#\	.	.
.	.	16ee\JJ	.	.
4e 4Gn/	.	16ff#m\LL	.	.
.	.	16ee\	2	.
.	.	16ccn\	1	.
.	.	16a#\JJ	.	.
*clefF4	*	*	*	*
=31	=31	=31	=31	=31
4BB\	.	16b\LL	1	.
.	.	16gg#\	4	.
.	.	16ee\	2	.
.	.	16bb\JJ	5	.
*clefG2	*	*	*	*
4b: 4e: 4G#:/	.	16gg#\LL	.	.
.	.	16bb\	.	.
.	.	16bbb\	.	.
.	.	16bb\JJ	.	.
4dd#X 4a 4B/	.	16aaa#XLL 16ccc#\	.	.
.	.	16bb\	.	.
.	.	16aaan 16ddd#X\	.	.
.	.	16bb\JJ	.	.
*clefF4	*	*	*	*
=32	=32	=32	=32	=32
*	*	*8va	*below	*
4E\	.	16ggg#LL 16eee\	2 4	.
.	.	16fff##X 16ddd#X\	.	.
.	.	16ggg# 16eee\	.	.
.	.	16eeee\JJ	.	.
*clefG2	*	*	*	*
*	*	*X8va	*above	*
4ff# 4dd [4e\	.	16ff#XLL 16ddn\	1 4	.
.	.	16ee#X 16cc#\	2 3	.
.	.	16ff# 16dd\	.	.
.	.	16eee#X\JJ	.	.
4ffn 4dd 4e\]	.	16ff#LL 16dd\	1 3	.
.	.	16ee# 16cc#\	.	.
.	.	16ff# 16dd\	.	.
.	.	16ddd\JJ	.	.
!!LO:LB:g=original
=33	=33	=33	=33	=33
*	*	*	*^	*
*clefF4	*	*8va	*	*	*
4EE\	.	16eeeLL 16gg#\	3	1	.
.	.	16fffn 16ddd\	.	.	.
.	.	16eee 16gg#\	.	.	.
.	.	16bbbJJ 16ddd\	.	.	.
*clefG2	*	*	*	*	*
4b 4d\	.	16eeeLL 16gg#\	.	.	.
.	.	16fff 16ddd\	.	.	.
.	.	16eee 16gg#\	.	.	.
.	.	16dddJJ 16ffn\	2 5	.	.
*clefF4	*	*X8va	*	*	*
4g# 4d 4E\	.	16gg#LL 16ee\	3	.	.
.	.	16ddd 16ff\	.	.	.
.	.	16gg# 16ee\	.	.	.
.	.	16eee\JJ	.	.	.
*	*	*	*v	*v	*
=34	=34	=34	=34	=34
4AA\	.	16eeeLL 16aa\	.	.
.	.	16fff# 16ccc#\	.	.
.	.	16eee\	.	.
.	.	16aaaJJ 16ccc#\	.	.
4a 4c#\	.	16eeeLL 16aa\	.	.
.	.	16fff# 16ccc#\	.	.
.	.	16eee 16aa\	.	.
.	.	16ccc#JJ 16ff#\	.	.
4c# 4E\	.	16aaLL 16ee\	.	.
.	.	16ccc# 16ff#\	.	.
.	.	16aa 16ee\	.	.
.	.	16eee\JJ	.	.
=35	=35	=35	=35	=35
4DD\	.	16fff#LL 16ddd 16aa\	.	.
.	.	16dd\	.	.
.	.	16fffn 16ddd 16gg#\	.	.
.	.	16dd\JJ	.	.
4a 4e-X 4A\	.	16fff#XLL 16ddd 16aa\	.	.
.	.	16dd\	.	.
.	.	16aaa 16fff# 16ddd\	.	.
.	.	16ff#\JJ	.	.
4d 4A 4D\	.	16aaaLL 16fff# 16ddd\	.	.
.	.	16ff#\	.	.
.	.	16fffn 16ddd 16aa\	.	.
!	!	!LO:TX:a:i:t=x répet. d.J.	!	!
!LO:TX:b:t=[segno]	!	!LO:TX:a:t=[segno]	!	!
.	.	16dd\JJ	.	.
=36	=36	=36	=36	=36
*>D	*>D	*>D	*>D	*>D
4AA\	.	16aa\LL	.	.
.	.	16cc# 16a\	.	.
.	.	16ee\	.	.
.	.	16aa\JJ	.	.
*clefG2	*	*	*	*
8ee 8a 8c#/	.	8aaa 8eee\	.	.
8r	.	8r	.	.
4r	.	8.cc#\L	.	.
.	.	16cc#\Jk	.	.
!!LO:LB:g=original
=37||	=37||	=37||	=37||	=37||
*clefF4	*	*	*	*
!	!	!	!	!LO:DY:t=p.
4FF#/	.	16aaLL 16cc#\	.	p
.	.	16aa 16cc#\	.	.
.	.	16aa 16cc#\	.	.
!	!	!LO:TX:b:i:t=distintamente	!	!
.	.	16aaJJ 16cc#\	.	.
4f# 4c# 4A\	.	16bbLL 16cc#\	.	.
.	.	16bb 16cc#\	.	.
.	.	16aa 16cc#\	.	.
.	.	16aaJJ 16cc#\	.	.
4c# 4A 4F#\	.	16gg#LL 16cc#\	.	.
.	.	16gg# 16cc#\	.	.
.	.	16ff# 16cc#\	.	.
.	.	16ff#JJ 16cc#\	.	.
=38	=38	=38	=38	=38
4CC#/	.	16ee#XLL 16cc#\	.	.
.	.	16ccc# 16cc#\	.	.
.	.	16ccc# 16cc#\	.	.
.	.	16ccc#JJ 16cc#\	.	.
*	*below	*	*	*
4g# 4c# 4B\	3	16ccc#LL 16bb#X 16cc#\	.	.
.	.	16ccc# 16bb# 16cc#\	.	.
.	.	16ccc# 16bbn 16cc#\	.	.
.	.	16ccc#JJ 16bb 16cc#\	.	.
4c# 4B 4E#X\	.	16ccc#LL 16aa 16cc#\	.	.
.	.	16ccc# 16aa 16cc#\	.	.
.	.	16ccc# 16gg# 16cc#\	.	.
.	.	16ccc#JJ 16gg# 16cc#\	.	.
=39	=39	=39	=39	=39
4FF#\	.	16aaLL 16cc#\	.	.
.	.	16aa 16cc#\	.	.
.	.	16aa 16cc#\	.	.
.	.	16aaJJ 16cc#\	.	.
4f# 4c# 4A\	.	16bbLL 16cc#\	.	.
.	.	16bb 16cc#\	.	.
.	.	16aa 16cc#\	.	.
.	.	16aaJJ 16cc#\	.	.
4B#X 4F# 4GG#\	.	16ggg#LL 16bb#X 16gg#\	.	<
.	.	16ggg# 16bb# 16gg#\	.	.
.	.	16ggg# 16bb# 16ff#\	.	.
!	!	!LO:TX:a:t=x	!	!
.	.	16ggg#JJ 16bb#\	.	.
!!LO:LB:g=original
=40	=40	=40	=40	=40
*	*	*8va	*	*
4CC#/	.	16ccc#LL 16ee#X\	.	[
.	.	16ggg# 16ccc#\	.	.
.	.	16ggg# 16ccc#\	.	.
.	.	16cccc#JJ 16ggg#\	.	.
*clefG2	*	*	*	*
4g# 4c# 4G#/	.	16cccc#LL 16ggg#\	.	.
.	.	16ggg# 16ccc#\	.	.
.	.	16ggg# 16ccc#\	.	.
.	.	16ccc#JJ 16gg#\	.	.
*clefF4	*	*X8va	*	*
4c# 4G# 4E#X\	.	16ccc#LL 16gg#\	.	.
.	.	16gg# 16cc#\	.	.
.	.	16gg# 16cc#\	.	.
.	.	16cc#JJ 16g#\	.	.
=41	=41	=41	=41	=41
4BB\	.	16dddLL 16dd\	.	>
.	.	16ddd 16dd\	.	.
.	.	16ddd 16dd\	.	.
.	.	16dddJJ 16dd\	.	.
4f# 4d 4B\	.	16dddLL 16ccc# 16dd\	.	.
.	.	16ddd 16ccc# 16dd\	.	.
.	.	16ddd 16bb 16dd\	.	.
.	.	16dddJJ 16bb 16dd\	.	.
4g# 4d 4E\	.	16dddLL 16aa 16dd\	.	.
.	.	16ddd 16aa 16dd\	.	.
.	.	16ddd 16gg# 16dd\	.	.
.	.	16dddJJ 16gg# 16dd\	.	]]
=42	=42	=42	=42	=42
4AA\	.	16ccc#LL 16cc#\	.	.
.	.	16ccc# 16cc#\	.	.
.	.	16ccc# 16cc#\	.	.
.	.	16ccc#JJ 16cc#\	.	.
4a 4e 4c#\	.	16ccc#LL 16bb 16cc#\	.	.
.	.	16ccc# 16bb 16cc#\	.	.
.	.	16ccc# 16aa 16cc#\	.	.
.	.	16ccc#JJ 16aa 16cc#\	.	.
4f# 4B#X 4D\	.	16bb#XLL 16gg# 16b#X\	.	.
.	.	16bb# 16gg# 16b#\	.	.
.	.	16bb# 16ff# 16b#\	.	.
.	.	16bb#JJ 16ff# 16b#\	.	.
=43	=43	=43	=43	=43
4C# 4CC#\	.	16ccc#LL 16cc#\	.	.
.	.	16ccc# 16dd\	.	.
.	.	16ccc# 16b#X\	.	.
.	.	16ccc#JJ 16cc#\	.	.
4a 4f# 4c#\	.	16ccc#LL 16cc#\	.	.
.	.	16ccc# 16cc#\	.	.
.	.	16ccc# 16cc#\	.	.
.	.	16ccc#JJ 16cc#\	.	.
4e#X 4B 4C#\	.	16ccc#LL 16gg#\	.	.
.	.	16ccc# 16gg#\	.	.
.	.	16ccc# 16gg#\	.	.
.	.	16ccc#JJ 16gg#\	.	.
*clefG2	*	*	*	*
!!LO:LB:g=original
=44	=44	=44	=44	=44
*	*	*2\right	*	*
16f#LL 16A 16F#/	.	2.ff#TT\	.	<.
16f# 16A/	.	.	.	.
16gn 16A#X/	.	.	.	.
16gJJ 16A#/	.	.	.	.
16gLL 16B/	.	.	.	.
16g 16B/	.	.	.	.
16g#X 16B#X/	.	.	.	.
16g#JJ 16B#/	.	.	.	.
16g#LL 16B#/	.	.	.	.
16g# 16B#/	.	.	.	.
16a 16c#/	.	.	.	[
16aJJ 16c#/	.	.	.	.
=45	=45	=45	=45	=45
8qC#/	.	.	.	.
16aLL 16c#/	3	2.cc#tt\	.	>
16a 16c#/	.	.	.	.
16g# 16B/	.	.	.	.
16g#JJ 16B/	.	.	.	.
16g#LL 16B/	.	.	.	.
16g# 16B/	.	.	.	.
16b 16d/	.	.	.	.
16bJJ 16d/	.	.	.	.
16aLL 16c#/	.	.	.	.
16a 16c#/	.	.	.	.
16g# 16B/	.	.	.	.
16g#JJ 16B/	.	.	.	.
=46	=46	=46	=46	=46
16aLL 16f# 16A 16F#/	.	2.ff#TT\	.	]
16f# 16A/	.	.	.	<
16gn 16A#X/	.	.	.	.
16gJJ 16A#/	.	.	.	.
16gLL 16B/	.	.	.	.
16g 16B/	.	.	.	.
16g#X 16B#X/	.	.	.	.
16g#JJ 16B#/	.	.	.	.
16g#LL 16B#/	.	.	.	.
16g# 16B#/	.	.	.	.
16a 16c#/	.	.	.	[
16aJJ 16c#/	.	.	.	.
=47	=47	=47	=47	=47
8qC#/	.	.	.	.
*	*	*2\left	*	*
16aLL 16c#/	.	2.cc#tt\	.	>]
16a 16c#/	.	.	.	.
16g# 16B/	.	.	.	.
16g#JJ 16B/	.	.	.	.
16g#LL 16B/	.	.	.	.
16g# 16B/	.	.	.	.
16b 16d/	.	.	.	.
16bJJ 16d/	.	.	.	.
16aLL 16c#/	.	.	.	.
16a 16c#/	.	.	.	.
16g# 16B/	.	.	.	.
16g#JJ 16B/	.	.	.	.
!!LO:PB:g=original
=48	=48	=48	=48	=48
*clefF4	*	*	*	*
!	!	!LO:TX:a:t=x	!	!
4CC#/	.	16ccc#LL 16ee#X\	.	.
.	.	16ggg# 16ccc#\	.	.
.	.	16ggg# 16ccc#\	.	.
.	.	16gg#JJ 16ee#\	.	.
4g# 4c# 4G#\	.	16gg#LL 16ee#\	.	.
.	.	16ccc# 16gg#\	3 5	.
.	.	16ccc# 16gg#\	.	.
.	.	16ee#JJ 16cc#\	.	.
4c# 4G# 4E#X\	.	16ee#LL 16cc#\	.	.
.	.	16gg# 16ee#\	.	.
.	.	16gg# 16ee#\	.	.
.	.	16cc#JJ 16g#\	.	.
=49	=49	=49	=49	=49
4C# 4FF#/	.	16aaLL 16cc#\	.	mf
.	.	16aa 16cc#\	.	.
.	.	16aa 16cc#\	.	.
.	.	16aaJJ 16cc#\	.	.
4f# 4c# 4A\	.	16bbLL 16cc#\	.	.
.	.	16bb 16cc#\	.	.
.	.	16aa 16cc#\	.	.
.	.	16aaJJ 16cc#\	.	.
4B#X 4F# 4GG#\	.	16gg#LL 16b#X\	1 4	.
.	.	16gg# 16b#\	.	.
.	.	16gg# 16b#\	.	.
.	.	16gg#JJ 16b#\	.	.
=50	=50	=50	=50	=50
4CC#/	.	16ee#XLL 16cc#\	.	.
.	.	16ccc# 16cc#\	.	.
.	.	16ccc# 16cc#\	.	.
.	.	16ccc#JJ 16cc#\	.	.
4g# 4c# 4B\	3	16ccc#LL 16bb# 16cc#\	.	.
.	.	16ccc# 16bb# 16cc#\	.	.
.	.	16ccc# 16bbn 16cc#\	.	.
.	.	16ccc#JJ 16bb 16cc#\	.	.
4c# 4B 4E#X\	.	16ccc#LL 16aa\	.	.
.	.	16ccc# 16aa\	.	.
.	.	16ccc# 16gg#\	.	.
.	.	16ccc#JJ 16gg#\	.	.
=51	=51	=51	=51	=51
4FF#\	.	16aaLL 16cc#\	.	.
.	.	16aa 16cc#\	.	.
.	.	16aa 16cc#\	.	.
.	.	16aaJJ 16cc#\	.	.
4f# 4c# 4A\	.	16bbLL 16cc#\	.	.
.	.	16bb 16cc#\	.	.
.	.	16aa 16cc#\	.	.
.	.	16aaJJ 16cc#\	.	.
4B#X 4F# 4GG#\	.	16ggg#LL 16bb#X 16gg#\	.	<
.	.	16ggg# 16bb# 16gg#\	.	.
.	.	16ggg# 16bb# 16ff#\	.	.
!	!	!LO:TX:a:t=x	!	!
.	.	16ggg#JJ 16bb#\	.	[[
!!LO:LB:g=original
=52	=52	=52	=52	=52
*clefG2	*	*2\right	*	*
!	!	!LO:N:vis=2	!	!LO:DY:rj
4f# 4A 4F#/	.	2.ff#T\	.	pp
*clefF4	*	*	*	*
4FF#/	.	.	.	.
4r	.	.	.	.
.	.	16qee#\	.	.
=53	=53	=53	=53	=53
2r	.	16ff#\LL	2	.
.	.	16ccc#\	5	.
.	.	16aa\	1	.
.	.	16fff#\JJ	4	.
*	*	*8va	*	*
.	.	16ccc#\LL	.	.
.	.	16ffff#\	.	.
.	.	16cccc#\	.	.
.	.	16aaa\JJ	.	.
4r	.	16fff#\LL	.	.
.	.	16ccc#\	.	.
.	.	16aa'\	.	.
.	.	16ff#\JJ	.	.
*clefF4	*	*X8va	*	*
=54	=54	=54	=54	=54
4f# 4A 4F#\	.	2.ff#TT\	.	.
4FF#\	.	.	.	.
4r	.	.	.	.
.	.	8qee#\	.	.
=55	=55	=55	=55	=55
2r	.	16ff#\LL	.	.
.	.	16ccc#\	.	.
.	.	16aa\	.	.
.	.	16fff#\JJ	.	.
*	*	*8va	*	*
.	.	16ccc#\LL	.	.
.	.	16ffff#\	.	.
.	.	16cccc#\	.	.
.	.	16aaa\JJ	.	.
4r	.	16fff#\LL	.	.
.	.	16ccc#\	.	.
.	.	16aa\	.	.
.	.	16ff#\JJ	.	.
*	*	*X8va	*	*
=56	=56	=56	=56	=56
4.f# 4.A 4.F#\	.	4.ff#TT\	.	ppp
*clefG2	*	*	*	*
.	.	32qqee#X\LLL	.	.
.	.	32qqff#\JJJ	.	.
8dd\L	.	16ddd\LL	.	.
.	.	16ff#\JJ	.	.
!	!	!LO:TX:b:i:t=poco. rit:dur=4q:ext=ud:problem:tekst with extention lines	!	!
8dd\	.	16fff#\LL	.	.
.	.	16ff#\	.	.
8cc#\J	.	16ccc#\	.	.
.	.	16cc#\JJ	.	.
!!LO:LB:g=original
=57	=57	=57	=57	=57
!LO:TX:t=P:problem:mixed beam	!	!	!	!
8f#L 8d/	.	16ccc#\LL	.	.
.	.	16ff#\	.	.
8b\J	.	16bb\	.	.
.	.	16dd\JJ	.	.
8b\L	.	16bb\LL	.	.
.	.	16ggn\	.	.
8a\J	.	16aa\	.	.
.	.	16dd\JJ	.	.
8a\L	.	16aa\LL	.	.
.	.	16ee\	.	.
8fn\J	.	16ff#\	.	.
.	.	16a\JJ	.	.
*clefF4	*	*	*	*
=58	=58	=58	=58	=58
8G#L 8E\	.	16ffn\LL	.	.
.	.	16dd\	.	.
8e\J	.	16ee\	.	.
.	.	16g#\JJ	.	.
8d#X\L	.	16dd#X\LL	.	.
.	.	16ddn\	.	.
8e\J	.	16ee\	.	.
.	.	16g#\JJ	.	.
.	.	32qqdd/LLL	.	.
.	.	32qqaa/JJJ	.	.
8f#\L	.	16ff#X\LL	.	.
.	.	16g#\	.	.
8e\J	.	16ee\	.	.
.	.	16g#\JJ	.	.
=59||	=59||	=59||	=59||	=59||
!	!	!	!	!LO:DY:t=pp.
4AA\	.	16cc#\LL	.	pp
.	.	16aa\	.	.
.	.	16ee\	.	.
.	.	16eee\JJ	.	.
4a 4c#\	.	16ccc#\LL	.	.
.	.	16aa\	.	.
.	.	16ff#\	.	.
.	.	16ee\JJ	.	.
4c# 4E\	.	16ff#M\LL	.	.
.	.	16ee\	.	.
.	.	16cc#\	.	.
.	.	16a\JJ	.	.
=60	=60	=60	=60	=60
4E/	.	16dd\LL	.	.
.	.	16gg#\	.	.
.	.	16ee\	.	.
.	.	16eee\JJ	.	.
4g# 4d\	.	16ddd\LL	.	.
.	.	16gg#\	.	.
.	.	16ff#\	.	.
.	.	16ee\JJ	.	.
4d 4E\	.	16ff#M\LL	.	.
.	.	16ee\	.	.
.	.	16dd\	.	.
.	.	16g#\JJ	.	.
!!LO:LB:g=original
=61	=61	=61	=61	=61
4EE/	.	16dd\LL	.	.
.	.	16gg#\	.	.
.	.	16ee\	.	.
.	.	16eee\JJ	.	.
*clefG2	*	*	*	*
4b 4d/	.	16aaa\LL	.	.
.	.	16ddd\	.	.
.	.	16ggg#\	.	.
.	.	16gg#\JJ	.	.
*clefF4	*	*	*	*
4g# 4d 4E\	.	16ggg#\LL	.	.
.	.	16ddd\	.	.
.	.	16gggn\	.	.
.	.	16ggny\JJ	.	.
=62	=62	=62	=62	=62
4AA\	.	16gggn\LL	.	.
.	.	16ccc#\	.	.
.	.	16fff#\	.	.
.	.	16aa\JJ	.	.
4a 4c#\	.	16fff#\LL	.	.
.	.	16ccc#\	.	.
.	.	16fffn\	.	.
.	.	16aa\JJ	.	.
4c# 4E\	.	16fff\LL	.	.
.	.	16ccc#\	.	.
.	.	16eee\	.	.
.	.	16ee\JJ	.	.
=63	=63	=63	=63	=63
4AAA/	.	16cc#\LL	.	.
.	.	16aa\	.	.
.	.	16ee\	.	.
.	.	16eee\JJ	.	.
4a 4c#\	.	16ccc#\LL	.	.
.	.	16aa\	.	.
.	.	16ff#\	.	.
.	.	16ee\JJ	.	.
4c# 4E\	.	16ff#M\LL	.	.
.	.	16ee\	.	.
.	.	16cc#\	.	.
.	.	16a\JJ	.	.
=64	=64	=64	=64	=64
4CCn/	.	16a#X\LL	.	.
.	.	16ggn\	.	.
.	.	16ee\	.	.
.	.	16eee\JJ	.	.
*clefG2	*	*	*	*
4a#X 4e/	.	16eeen\LL	.	.
.	.	16gg#X\	.	.
.	.	16ff#\	.	.
.	.	16ee\JJ	.	.
4e 4Gn/	.	16ff#M\LL	.	.
.	.	16ee\	.	.
.	.	16ccn\	1	.
.	.	16a#\JJ	2	.
*clefF4	*	*	*	*
!!LO:LB:g=original
=65	=65	=65	=65	=65
4BB\	.	16b\LL	1	.
.	.	16gg#\	4	.
.	.	16ee\	3	.
.	.	16bb\JJ	5	.
*clefG2	*	*	*	*
4b 4e 4G#/	.	16gg#\LL	4	.
.	.	16bb\	1	.
.	.	16bbb\	.	.
.	.	16bb\JJ	.	.
4dd#X 4a 4B/	.	16aaa#XLL 16ccc#\	.	.
.	.	16bb\	.	.
.	.	16aaan 16ddd#X\	.	.
.	.	16bb\JJ	.	.
=66	=66	=66	=66	=66
*	*	*8va	*	*
!LO:TX:b:t=e	!	!	!	!
4d 4B/	.	16ggg#LL 16eee\	.	.
.	.	16fff##X 16ddd#X\	.	.
.	.	16ggg# 16eee\	.	.
.	.	16eeee\JJ	.	.
4ff# 4dd [4e/	.	16fff#XLL 16dddn\	.	.
.	.	16eee#X 16ccc#\	.	.
.	.	16fff# 16ddd\	.	.
.	.	16eeee#y\JJ	.	.
4ffn 4dd 4e/]	.	16fffnLL 16ddd\	.	.
.	.	16eeen 16ccc#\	.	.
.	.	16fff 16ddd\	.	.
.	.	16eeeeny\JJ	.	.
*clefF4	*	*	*	*
=67	=67	=67	=67	=67
4EE/	.	16eeeLL 16gg#\	3	.
.	.	16fffn 16ddd\	.	.
.	.	16eee 16gg#\	.	.
.	.	16bbbJJ 16ddd\	.	.
*clefG2	*	*	*	*
4b 4d/	.	16eeeLL 16gg#\	.	.
.	.	16fff 16ddd\	.	.
.	.	16eee 16gg#\	.	.
.	.	16dddJJ 16ffn\	2 5	.
*clefF4	*	*X8va	*	*
4g# 4d 4E\	.	16gg#LL 16ee\	.	.
.	.	16ddd 16ffn\	.	.
.	.	16gg# 16ee\	.	.
.	.	16eee\JJ	.	.
=68	=68	=68	=68	=68
4AA/	.	16eeeLL 16aa\	.	.
.	.	16fff# 16ccc#\	.	.
.	.	16eee 16aa\	.	.
.	.	16fff#JJ 16ccc#\	.	.
4a 4c#\	.	16eeeLL 16aa\	.	.
.	.	16fff# 16ccc#\	.	.
.	.	16eee 16aa\	.	.
.	.	16ccc#JJ 16ff#\	.	.
4c# 4E\	.	16aaLL 16ee\	.	.
.	.	16ccc# 16ff#\	.	.
.	.	16aa 16ee\	.	.
.	.	16eee\JJ	.	.
!!LO:LB:g=original
=69	=69	=69	=69	=69
4DD/	.	16fff#LL 16ddd 16aa\	.	.
.	.	16dd\	.	.
.	.	16fffn 16ddd 16gg#\	.	.
.	.	16dd\JJ	.	.
4a 4d 4A\	.	16fff#XLL 16ddd 16aa\	.	.
.	.	16dd\	.	.
.	.	16aaa 16fff# 16ddd\	.	.
.	.	16ff#\JJ	.	.
4d 4A 4D\	.	16aaaLL 16fff# 16ddd\	.	.
.	.	16ff#\	.	.
.	.	16fffn 16ddd 16aa\	.	.
.	.	16dd\JJ	.	.
=70	=70	=70	=70	=70
4AAA/	.	16eeeLL 16ccc# 16aa\	.	.
.	.	16cc#\	.	.
.	.	16ddd#X 16cccn 16aa\	.	.
.	.	16ccn\JJ	.	.
4a 4B\	.	16eeeLL 16ccc#X 16aa\	.	.
.	.	16cc#X\	.	.
.	.	16fffn 16ddd# 16aa\	.	.
.	.	16dd#y\JJ	.	.
4c# 4G#\	.	16fffLL 16ddd# 16aa\	.	.
.	.	16dd#\	.	.
.	.	16eee 16ccc# 16aa\	.	.
.	.	16cc#\JJ	.	.
=71	=71	=71	=71	=71
*	*^	*	*	*
*	*	*	*8va	*	*
4EE/	.	.	16eeeLL 16gg#\	.	.
.	.	.	16fffn 16ddd\	.	.
.	.	.	16eee 16gg#\	.	.
.	.	.	16bbbJJ 16ddd\	.	.
*clefG2	*	*	*	*	*
4b 4d/	1	3	16eeeLL 16gg#\	.	.
.	.	.	16fff 16ddd\	.	.
.	.	.	16eee 16gg#\	.	.
.	.	.	16dddJJ 16ffn\	.	.
*clefF4	*	*	*X8va	*	*
4g# 4c# 4E\	.	.	16gg#LL 16ee\	.	.
.	.	.	16ddd 16ffn\	.	.
.	.	.	16gg# 16ee\	.	.
.	.	.	16eee\JJ	.	.
*	*v	*v	*	*	*
=72	=72	=72	=72	=72
4AA\	.	16eeeLL 16aa\	.	.
.	.	16fff# 16ccc#\	.	.
.	.	16eee 16aa\	.	.
.	.	16aaaJJ 16ccc#\	.	.
4a 4e 4c#\	.	16eeeLL 16aa\	.	.
.	.	16fff# 16ccc#\	.	.
.	.	16eee 16aa\	.	.
.	.	16ccc#JJ 16ee\	2 5	.
!!LO:PB:g=original
4g# 4c# 4B 4E#X\	.	16ccc#LL 16ee#X\	.	.
.	.	16ddd 16bb\	.	.
.	.	16ccc# 16ee#\	.	.
.	.	16ggg#\JJ	.	.
=73	=73	=73	=73	=73
4FF#\	.	16ccc#LL 16ff#\	.	.
.	.	16ddd 16aa\	.	.
.	.	16ccc# 16ff#\	.	.
.	.	16fff#JJ 16aa\	.	.
4f# 4c# 4A\	.	16ccc#\LL	.	.
.	.	16ddd 16aa\	.	.
.	.	16ccc# 16ff#\	.	.
.	.	16aaJJ 16cc#\	2 5	.
4c# 4Gn 4AA\	.	16aaLL 16cc#\	3	.
.	.	16bb-X 16ggn\	.	.
.	.	16aa 16cc#\	.	.
.	.	16eee#XJJ 16gg\	.	.
=74	=74	=74	=74	=74
4D 4DD/	.	16aaLL 16dd\	.	.
.	.	16bb 16gg#\	.	.
.	.	16aa 16dd\	.	.
.	.	16dddJJ 16ff#\	.	.
*	*above	*	*	*
4g# 4e#X 4D\	2 1	16gg#LL 16cc#\	.	.
.	.	16aa 16ee#X\	.	.
.	.	16gg# 16cc#\	.	.
.	.	16ccc#JJ 16aa 16ee#\	.	.
4gn 4en\	.	16ggnLL 16ccn\	.	.
.	.	16aa 16een\	.	.
.	.	16gg 16cc\	.	.
.	.	16cccnJJ 16ee\	.	.
=75	=75	=75	=75	=75
4f# 4d#X\	.	16ff#LL 16b\	.	.
.	.	16ggn 16dd#X\	.	.
.	.	16ff# 16b\	.	.
.	.	16bbJJ 16dd#\	.	.
4dn 4B 4D\	.	16ffnLL 16b-X\	.	.
.	.	16gg 16ddn\	.	.
.	.	16ff 16b-\	.	.
.	.	16bb-XJJ 16dd\	.	.
4e 4d 4G# 4E\	.	16eeLL 16gny\	.	.
.	.	16ff 16dd\	.	.
.	.	16ee 16g\	.	.
.	.	16bbnJJ 16dd\	.	.
!!LO:LB:g=original
=76	=76	=76	=76	=76
*	*^	*	*	*
4AA\	.	.	16eeLL 16a\	.	pp
.	.	.	16ffn 16cc#\	.	.
.	.	.	16ee 16a\	.	.
.	.	.	16aaJJ 16cc#\	.	.
4c# 4A\	1	2	16eeLL 16a\	.	.
.	.	.	16ff 16cc#\	.	.
.	.	.	16ee 16a\	.	.
.	.	.	16cc#JJ 16fn\	.	.
4E\	.	.	16aLL 16e\	.	.
.	.	.	16cc# 16f\	.	.
.	.	.	16a 16e\	.	.
.	.	.	16ee\JJ	.	.
*	*v	*v	*	*	*
=77	=77	=77	=77	=77
4EE\	.	16eeLL 16dd\	.	.
.	.	16g#\	.	.
.	.	16dd#X 16dd\	.	.
.	.	16g#\JJ	.	.
4d 4G#\	.	16eeLL 16ddn\	.	.
.	.	16g#\	.	.
.	.	16ffn 16dd\	.	.
.	.	16g#\JJ	.	.
4E\	.	16ffLL 16dd\	.	.
.	.	16g#\	.	.
.	.	16ee 16dd\	.	.
.	.	16g#\JJ	.	.
=78	=78	=78	=78	=78
4AA\	.	16eeeLL 16aa\	.	.
.	.	16fffn 16ccc#\	.	.
.	.	16eee 16aa\	.	.
.	.	16aaaJJ 16ccc#\	.	.
*clefG2	*	*	*	*
4cc# 4a 4e/	.	16eeeLL 16aa\	.	.
.	.	16fff 16ccc#\	4	.
.	.	16eee 16aa\	.	.
.	.	16ccc#JJ 16ffn\	.	.
4a 4e 4c#/	.	16aaLL 16ee\	.	.
.	.	16ccc# 16ffn\	.	.
.	.	16aa 16ee\	.	.
.	.	16eee\JJ	.	.
=79	=79	=79	=79	=79
4E/	.	16eeeLL 16ddd 16gg#\	.	.
.	.	16ee\	.	.
.	.	16ddd#X 16dddny 16gg#\	.	.
.	.	16ee\JJ	.	.
!!LO:LB:g=original
4dd 4g# 4e/	.	16eeeLL 16dddn 16gg#\	.	.
.	.	16ee\	.	.
.	.	16fffn 16ddd 16gg#\	.	.
.	.	16ee\JJ	.	.
4g# 4e 4d/	.	16fffLL 16ddd 16gg#\	.	.
.	.	16ee\	.	.
.	.	16eee 16ddd 16gg#\	.	.
.	.	16ee\JJ	.	.
=80	=80	=80	=80	=80
!	!	!	!	!LO:DY:t=pp. piu possibile
4cc# 4e 4A/	.	16eeeLL 16aa\	.	pp
.	.	16fff#X 16ccc#\	.	.
.	.	16eee 16aa\	.	.
.	.	16aaaJJ 16ccc#\	.	.
16ee/LL	.	16eeeLL 16aa\	.	.
16aa/	.	16fff# 16ccc#\	.	.
16ee/	.	16eee 16aa\	.	.
16cc#/JJ	.	16ccc#JJ 16ff#\	.	.
16a/LL	.	16aaLL 16ee\	.	.
*	*below	*	*	*
16cc#/	1	16ccc# 16ff#\	4	.
16a/	.	16aa 16ee\	.	.
16cc#/JJ	.	16eeeJJ 16ff#\	5	.
=81	=81	=81	=81	=81
16a/LL	.	16aaLL 16ee\	.	.
16cc#/	.	16ccc# 16ff#\	.	.
16a/	.	16aa 16ee\	.	.
16cc#/JJ	.	16eeeJJ 16ff#\	.	.
16a/LL	.	16aaLL 16ee\	.	.
16cc#/	.	16ccc# 16ff#\	4	.
16a/	.	16aa 16ee\	.	.
16e/JJ	.	16ff#JJ 16cc#\	4	.
16c#/LL	.	16eeLL 16a\	.	.
16e/	.	16ff# 16cc#\	.	.
16c#/	.	16ee 16a\	.	.
16e/JJ	.	16aaJJ 16cc#\	.	.
=82	=82	=82	=82	=82
16c#/LL	.	16eeLL 16a\	.	.
16e/	.	16ff# 16cc#\	.	.
16c#/	.	16ee 16a\	.	.
16e/JJ	.	16aaJJ 16cc#\	.	.
16c#/LL	.	16eeLL 16a\	.	.
16e/	.	16ff# 16a\	.	.
16c#/	.	16ee 16a\	2 4	.
16A/JJ	.	16cc#JJ 16f#\	.	.
*clefF4	*above	*	*	*
16A\LL	4	16aLL 16e\	.	.
16c#\	2	16cc# 16f#\	.	.
16A\	.	16a 16e\	.	.
16c#\JJ	.	16eeJJ 16f#\	.	.
!!LO:LB:g=original
=83	=83	=83	=83	=83
16A\LL	.	16aLL 16e\	.	.
16c#\	.	16cc# 16f#\	.	.
16A\	.	16a 16e\	.	.
16c#\JJ	.	16eeJJ 16f#\	.	.
16A\LL	.	16aLL 16e\	.	.
16c#\	.	16cc# 16f#\	.	.
16A\	1	16a 16e\	.	.
16E\JJ	.	16f#JJ 16c#\	.	.
16C#\LL	.	16eLL 16A\	.	.
16E\	.	16f# 16c#\	.	.
16C#\	.	16e 16A\	.	.
16E\JJ	.	16aJJ 16c#\	.	.
=84	=84	=84	=84	=84
16AA\LL	.	32r	.	.
.	.	32A\LLL	1	.
16E\	.	32B#X\	2	.
.	.	32c#\	3	.
16A\	.	32f#\	5	.
.	.	32e\JJJ	4	.
*	*	*Xtuplet	*	*
16c#\JJ	.	80%3a\LL	1	.
.	.	80%3b#X\	2	.
*clefG2	*below	*	*	*
16e/LL	4	.	.	.
.	.	80%3cc#\	3	.
.	.	80%3ff#\	5	.
16a/	.	.	.	.
.	.	80%3ee\JJ	4	.
16cc#/	.	80%3aa\LL	.	.
.	.	80%3bb#X\	.	.
16ee/JJ	.	.	.	.
.	.	80%3eee\	.	.
.	.	80%3fff#\	.	.
16aa\LL	.	.	.	.
.	.	80%3eee\JJ	.	.
*	*	*8va	*	*
16ccc#\	.	80%3aaa\LL	.	.
.	.	80%3bbb#\	.	.
16eee\	.	.	.	.
.	.	80%3cccc#\	.	.
.	.	80%3ffff#\	.	.
16aaa\JJ	.	.	.	.
.	.	80%3eeee\JJ	.	.
=85	=85	=85	=85	=85
*Xtuplet	*	*	*	*
!LO:TX:t=P:problem:w tym takcie podwójna, a nie potrójna belka	!	!	!	!
64%3ccccn\LL	.	32aaaa\LLL	5	.
.	.	32dddd#X\	2	.
64%3aaa\	.	.	.	.
.	.	32gggg#\	4	.
64%3fff#\	.	32ffff#\	.	.
.	.	32dddd#\	.	.
64%3fff#X\JJ	.	.	.	.
.	.	32ccccn\JJJ	.	.
64%3cccn\LL	.	32aaa\LLL	.	.
.	.	32ddd#X\	.	.
64%3aa\	.	.	.	.
.	.	32ggg#\	4	.
64%3ff#\	.	32fff#\	.	.
.	.	32ddd#\	.	.
64%3dd#X\JJ	.	.	.	.
.	.	32cccn\JJJ	.	.
*	*	*X8va	*	*
!	!	!LO:TX:a:i:t=loco	!	!
56%3ccn\LL	.	64%3aa\LL	.	.
.	.	64%3ff#\	.	.
56%3a\	.	.	.	.
.	.	64%3dd#\	.	.
56%3f#\	.	.	.	.
.	.	64%3ccn\JJ	.	.
56%3d#X\	.	.	.	.
.	.	64%3a\LL	.	.
56%3c#X\	.	.	.	.
.	.	64%3f#\	.	.
56%3A\	.	.	.	.
.	.	64%3d\	.	.
56%3F#\JJ	.	.	.	.
.	.	64%3cn\JJ	.	.
*clefF4	*	*	*	*
!!LO:LB:g=original
=86	=86	=86	=86	=86
16AA\LL	.	32r	.	.
.	.	32A\LLL	.	.
16E\	.	32B#X\	.	.
.	.	32c#\	.	.
16A\	.	32f#\	.	.
.	.	32e\JJJ	4	.
16c#\JJ	.	80%3a\LL	.	.
.	.	80%3b#X\	.	.
*clefG2	*	*	*	*
16e/LL	.	.	.	.
.	.	80%3cc#\	.	.
.	.	80%3ff#\	.	.
16a/	.	.	.	.
.	.	80%3ee\JJ	.	.
16cc#/	.	80%3aa\LL	.	.
.	.	80%3bb#X\	.	.
16ee/JJ	.	.	.	.
.	.	80%3ccc#\	.	.
.	.	80%3fff#\	.	.
16aa\LL	.	.	.	.
.	.	80%3eee\JJ	.	.
*	*	*8va	*	*
16ccc#\	.	80%3aaa\LL	.	.
.	.	80%3bbb#\	.	.
16eee\	.	.	.	.
.	.	80%3cccc#\	.	.
.	.	80%3ffff#\	.	.
16aaa\JJ	.	.	.	.
.	.	80%3eeee\JJ	.	.
=87	=87	=87	=87	=87
*8va	*	*	*	*
!LO:TX:t=P:problem:w tym takcie podwójna, a nie potrójna belka	!	!	!	!
64%3ccccn\LL	.	32aaaa\LLL	5	.
.	.	32dddd#X\	2	.
64%3aaa\	.	.	.	.
.	.	32gggg#\	4	.
64%3fff#\	.	32ffff#\	.	.
.	.	32dddd#\	.	.
64%3ddd#X\JJ	.	.	.	.
.	.	32ccccn\JJJ	.	.
64%3cccn\LL	.	32aaa\LLL	.	.
.	.	32ddd#X\	.	.
64%3aa\	.	.	.	.
.	.	32ggg#\	4	.
64%3ff#\	.	32fff#\	.	.
.	.	32ddd#\	.	.
64%3cc#X\JJ	.	.	.	.
.	.	32cccn\JJJ	.	.
*X8va	*	*X8va	*	*
!	!	!LO:TX:a:t=loco	!	!
56%3ccn\LL	.	64%3aa\LL	.	.
.	.	64%3ff#\	.	.
56%3a\	.	.	.	.
.	.	64%3dd#\	.	.
56%3f#\	.	.	.	.
.	.	64%3ccn\JJ	.	.
56%3d#X\	.	.	.	.
.	.	64%3a\LL	.	.
56%3cn\	.	.	.	.
.	.	64%3f#\	.	.
56%3A\	.	.	.	.
.	.	64%3d\	.	.
56%3F#\JJ	.	.	.	.
.	.	64%3cn\JJ	.	.
*clefF4	*	*	*	*
=88	=88	=88	=88	=88
16AA\LL	.	32r	.	.
.	.	32A\LLL	.	.
16E\	.	32B\	.	.
.	.	32c#\	.	.
16A\	.	32f#\	.	.
.	.	32e\JJJ	.	.
16c#\JJ	.	80%3a\LL	.	.
.	.	80%3b#X\	.	.
*clefG2	*	*	*	*
16e\LL	.	.	.	.
.	.	80%3cc#\	.	.
.	.	80%3ff#\	.	.
16a\	.	.	.	.
.	.	80%3ee\JJ	.	.
16cc#\	.	80%3aa\LL	.	.
.	.	80%3bb#X\	.	.
16ee\JJ	.	.	.	.
.	.	80%3ccc#\	.	.
.	.	80%3fff#\	.	.
16aa\LL	.	.	.	.
.	.	80%3eee\JJ	.	.
*	*	*8va	*	*
16ccc#\	.	80%3aaa\LL	.	.
.	.	80%3bbb#\	.	.
16eee\	.	.	.	.
.	.	80%3cccc#\	.	.
.	.	80%3ffff#\	.	.
16aaa\JJ	.	.	.	.
.	.	80%3eeee\JJ	.	.
*	*	*X8va	*	*
!!LO:LB:g=original
=89	=89	=89	=89	=89
*tremolo	*	*8va	*	*
!	!	!LO:TX:b:i:t=tremolando	!	!
32eeeLLL 32ccc#\	.	2.eeeeTT\	.	.
32aaa\	.	.	.	.
32eee 32ccc#\	.	.	.	.
32aaa\	.	.	.	.
32eee 32ccc#\	.	.	.	.
32aaa\	.	.	.	.
32eee 32ccc#\	.	.	.	.
32aaa\JJJ	.	.	.	.
32dddLLL 32cccn\	.	.	.	.
32ggg#X\	.	.	.	.
32ddd 32ccc\	.	.	.	.
32ggg#X\	.	.	.	.
32ddd 32ccc\	.	.	.	.
32ggg#X\	.	.	.	.
32ddd 32ccc\	.	.	.	.
32ggg#X\JJJ	.	.	.	.
32eeeLLL 32ccc#X\	.	.	.	.
32aaa\	.	.	.	.
32eee 32ccc#\	.	.	.	.
32aaa\	.	.	.	.
32eee 32ccc#\	.	.	.	.
32aaa\	.	.	.	.
32eee 32ccc#\	.	.	.	.
32aaa\JJJ	.	.	.	.
.	.	8qqdddd#X\	.	.
.	.	8qqeeee\	.	.
*Xtremolo	*	*X8va	*	*
=90	=90	=90	=90	=90
*8va	*	*	*	*
4cccc# 4eee 4aa\	.	4aaa\	.	.
4r	.	4r	.	.
4r	.	4r	.	.
*X8va	*	*	*	*
=91	=91	=91	=91	=91
!LO:CL:ed	!	!LO:TX:b:i:t=quasi riente	!	!
*clefF4	*	*	*	*
4d: 4E: 4EE:\	.	4eee: 4gg#: 4ee: 4g#:\	.	.
4r	.	4r	.	.
4r	.	4r	.	.
=92	=92	=92	=92	=92
4c#: 4E: 4AA: 4AAA:\	.	4aa 4ee 4a\	.	.
4r	.	4r	.	.
!	!	!LO:TX:b:i:t=Fine.	!	!
4r	.	4r	.	.
==	==	==	==	==
*-	*-	*-	*-	*-
!!!system-decoration: {(s1,s2)}
!!!RDF**kern: > = above
!!!RDF**kern: < = below
!!!AIN: 1 piano
!!!ENC: Marta Lawrence
!!!END: 2021-05-29
!!!ENC: Andrzej Gręziak
!!!END: 2021-05-07
